X:1
T:[ID 2-35]
T:[ID 2-35]
T:Bezeichnung standardisiert: Menuett Men\"uet 1. ex C.#. [Bass]
T:Urheber unbekannt Datum in der hier transkribierten schriftlichen Quelle: 1767
C:Urheber unbekannt
C:Datum in der hier transkribierten schriftlichen Quelle: 1767
L:1/8
M:3/4
K:C
V:1 bass 
V:1
 C,2 E,2 D,2 | C,2 D,2 E,2 | F,2 G,2 G,,2 | C,CG,E, G,2 | G,,G,D,B,, G,,2 | C,2 D,2 E,2 | %6
 G,,G,D,B,, G,,2 | C,2 E,2 G,2 | C,2 G,2 G,,2 | C,2 D,2 E,2 | F,2 G,2 G,,2 | C,2 G,,2 C,,2 :: %12
 C,2 E,2 C,2 | G,2 A,2 B,2 | C2 A,2 C2 | D2 A,2 ^F,2 | D,DA,^F, D,2 | G,2 A,2 B,2 | D,DA,^F, D,2 | %19
 G,2 B,2 D2 | C2 D2 D,2 | G,A,B,A,G,F, | E,2 G,2 C2 | D,2 ^E,2 B,2 | C,2 E,2 A,2 | G,2 D,2 G,,2 | %26
 G,,G,F,D, G,,2 | C,2 D,2 E,2 | G,,G,F,D, G,,2 | C,2 E,2 G,2 | C,2 G,2 G,,2 | C,2 D,2 E,2 | %32
 F,2 G,2 G,,2 | C,2 G,,2 C,,2 :| %34

